rospo-icon-theme-classic-common/48x48/apps/ocsstore.svg

<svg height="48" viewBox="0 0 48 48" width="48" xmlns="http://www.w3.org/2000/svg"><path d="m24 4a20 20 0 0 0 -20 20 20 20 0 0 0 20 20 20 20 0 0 0 20-20 20 20 0 0 0 -20-20z" fill="#144379"/><path d="m24 11a14 14 0 0 0 -9.154297 3.431641l3.642578 3.642578c.164209-.043331.333524-.074219.511719-.074219h10c .178195 0 .34751.03089.511719.07422l3.648437-3.648438a14 14 0 0 0 -9.160156-3.425782zm-10.574219 4.839844c-2.205956 2.542287-3.422141 5.794231-3.425781 9.160156.0067 3.36466 1.224884 6.614375 3.431641 9.154297l3.568359-3.568359v-.585938-10c0-.178195.03089-.34751.07422-.511719l-3.648438-3.648437zm21.142578.0059-3.642578 3.642578c.043331.164168.074219.333483.074219.511678v10c0 .178195-.03089.34751-.07422.511719l3.648438 3.648437a14 14 0 0 0 3.425782-9.160156 14 14 0 0 0 -3.431641-9.154297zm-5.05664 16.080078c-.164209.04329-.333524.074178-.511719.074178h-7l-5 5v-3.585938l-2.160156 2.160157a14 14 0 0 0 9.160156 3.425781 14 14 0 0 0 9.154297-3.431641l-3.642578-3.642578z" opacity=".2"/><path d="m4.0215 24.418a20 20 0 0 0 -.0215.582 20 20 0 0 0 20 20 20 20 0 0 0 20-20 20 20 0 0 0 -.021-.418 20 20 0 0 1 -19.979 19.418 20 20 0 0 1 -19.978-19.582z" opacity=".2"/><path d="m24 4a20 20 0 0 0 -20 20 20 20 0 0 0  .0215.418 20 20 0 0 1 19.978-19.418 20 20 0 0 1 19.979 19.582 20 20 0 0 0  .021-.582 20 20 0 0 0 -20-20z" fill="#fff" opacity=".1"/><path d="m24 10a14 14 0 0 0 -9.154297 3.431641l3.642578 3.642578c.164209-.043331.333524-.074219.511719-.074219h10c .178195 0 .34751.03089.511719.07422l3.648437-3.648438a14 14 0 0 0 -9.160156-3.425782z" fill="#00cea5"/><path d="m13.425781 14.839844c-2.205956 2.542287-3.422141 5.794231-3.425781 9.160156.0067 3.36466 1.224884 6.614375 3.431641 9.154297l3.568359-3.568359v-.585938-10c0-.178195.03089-.34751.07422-.511719z" fill="#d152ac"/><path d="m34.568359 14.845703-3.642578 3.642578c.043331.164209.074219.333524.074219.511719v10c0 .178195-.03089.34751-.07422.511719l3.648438 3.648437a14 14 0 0 0 3.425782-9.160156 14 14 0 0 0 -3.431641-9.154297z" fill="#d75950"/><path d="m29.511719 30.925781c-.164209.043331-.333524.074219-.511719.074219h-7l-5 5v-3.585938l-2.160156 2.160157a14 14 0 0 0 9.160156 3.425781 14 14 0 0 0 9.154297-3.431641z" fill="#e88a19"/><path d="m24 10a14 14 0 0 0 -9.154297 3.431641l.560547.560547a14 14 0 0 1 8.59375-2.992188 14 14 0 0 1 8.599609 2.986328l.560547-.560547a14 14 0 0 0 -9.160156-3.425781zm-10.574219 4.839844c-2.205956 2.542287-3.422141 5.794231-3.425781 9.160156.000333.16745.01713.333193.023438.5.117618-3.18623 1.306172-6.244392 3.402343-8.660156l3.574219 3.574218v-.414062c0-.178195.030889-.34751.074219-.511719zm21.142578.005859-3.642578 3.642578c.043331.164209.074219.333524.074219.511719v.414062l3.568359-3.568359a14 14 0 0 1 3.408203 8.6875 14 14 0 0 0  .023438-.533203 14 14 0 0 0 -3.431641-9.154297zm-3.568359 14.154297c0 .178195-.030889.34751-.074219.511719l.074219.074219zm-1.488281 1.925781c-.164209.043331-.333524.074219-.511719.074219h-7l-5 5v .107422a14 14 0 0 0  .583984.308594l4.416016-4.416016h7c .178195 0 .34751-.030929.511719-.074219l3.082031 3.082031a14 14 0 0 0  .560547-.439453zm-12.511719 1.488281-2.160156 2.160157a14 14 0 0 0  .560547.439453l1.599609-1.59961z" fill="#fff" opacity=".2"/></svg>

<svg xmlns="http://www.w3.org/2000/svg" width="48" height="48" version="1.1" viewBox="0 0 48 48">
 <path style="fill:#144379" d="M 24,4 A 20,20 0 0 0 4,24 20,20 0 0 0 24,44 20,20 0 0 0 44,24 20,20 0 0 0 24,4 Z"/>
 <path style="opacity:0.2" d="m 24,11 a 14,14 0 0 0 -9.154297,3.431641 l 3.642578,3.642578 C 18.65249,18.030888 18.821805,18 19,18 l 10,0 c 0.178195,0 0.34751,0.03089 0.511719,0.07422 l 3.648437,-3.648438 A 14,14 0 0 0 24,11 Z M 13.425781,15.839844 C 11.219825,18.382131 10.00364,21.634075 10,25 c 0.0067,3.36466 1.224884,6.614375 3.431641,9.154297 L 17,30.585938 17,30 17,20 c 0,-0.178195 0.03089,-0.34751 0.07422,-0.511719 l -3.648438,-3.648437 z m 21.142578,0.0059 -3.642578,3.642578 C 30.969112,19.65249 31,19.821805 31,20 l 0,10 c 0,0.178195 -0.03089,0.34751 -0.07422,0.511719 l 3.648438,3.648437 A 14,14 0 0 0 38,25 14,14 0 0 0 34.568359,15.845703 Z m -5.05664,16.080078 C 29.34751,31.969112 29.178195,32 29,32 l -7,0 -5,5 0,-3.585938 -2.160156,2.160157 A 14,14 0 0 0 24,39 14,14 0 0 0 33.154297,35.568359 l -3.642578,-3.642578 z"/>
 <path style="opacity:0.2" d="M 4.0215,24.418 A 20,20 0 0 0 4,25 20,20 0 0 0 24,45 20,20 0 0 0 44,25 20,20 0 0 0 43.979,24.582 20,20 0 0 1 24,44 20,20 0 0 1 4.022,24.418 Z"/>
 <path style="opacity:0.1;fill:#ffffff" d="M 24,4 A 20,20 0 0 0 4,24 20,20 0 0 0 4.0215,24.418 20,20 0 0 1 23.9995,5 20,20 0 0 1 43.9785,24.582 20,20 0 0 0 43.9995,24 a 20,20 0 0 0 -20,-20 z"/>
 <path style="fill:#00cea5" d="m 24,10 a 14,14 0 0 0 -9.154297,3.431641 l 3.642578,3.642578 C 18.65249,17.030888 18.821805,17 19,17 l 10,0 c 0.178195,0 0.34751,0.03089 0.511719,0.07422 l 3.648437,-3.648438 A 14,14 0 0 0 24,10 Z"/>
 <path style="fill:#d152ac" d="M 13.425781,14.839844 C 11.219825,17.382131 10.00364,20.634075 10,24 c 0.0067,3.36466 1.224884,6.614375 3.431641,9.154297 L 17,29.585938 17,29 17,19 c 0,-0.178195 0.03089,-0.34751 0.07422,-0.511719 z"/>
 <path style="fill:#d75950" d="m 34.568359,14.845703 -3.642578,3.642578 C 30.969112,18.65249 31,18.821805 31,19 l 0,10 c 0,0.178195 -0.03089,0.34751 -0.07422,0.511719 l 3.648438,3.648437 A 14,14 0 0 0 38,24 14,14 0 0 0 34.568359,14.845703 Z"/>
 <path style="fill:#e88a19" d="M 29.511719,30.925781 C 29.34751,30.969112 29.178195,31 29,31 l -7,0 -5,5 0,-3.585938 -2.160156,2.160157 A 14,14 0 0 0 24,38 14,14 0 0 0 33.154297,34.568359 l -3.642578,-3.642578 z"/>
 <path style="fill:#ffffff;opacity:0.2" d="M 24 10 A 14 14 0 0 0 14.845703 13.431641 L 15.40625 13.992188 A 14 14 0 0 1 24 11 A 14 14 0 0 1 32.599609 13.986328 L 33.160156 13.425781 A 14 14 0 0 0 24 10 z M 13.425781 14.839844 C 11.219825 17.382131 10.00364 20.634075 10 24 C 10.000333 24.16745 10.01713 24.333193 10.023438 24.5 C 10.141056 21.31377 11.32961 18.255608 13.425781 15.839844 L 17 19.414062 L 17 19 C 17 18.821805 17.030889 18.65249 17.074219 18.488281 L 13.425781 14.839844 z M 34.568359 14.845703 L 30.925781 18.488281 C 30.969112 18.65249 31 18.821805 31 19 L 31 19.414062 L 34.568359 15.845703 A 14 14 0 0 1 37.976562 24.533203 A 14 14 0 0 0 38 24 A 14 14 0 0 0 34.568359 14.845703 z M 31 29 C 31 29.178195 30.969111 29.34751 30.925781 29.511719 L 31 29.585938 L 31 29 z M 29.511719 30.925781 C 29.34751 30.969112 29.178195 31 29 31 L 22 31 L 17 36 L 17 36.107422 A 14 14 0 0 0 17.583984 36.416016 L 22 32 L 29 32 C 29.178195 32 29.34751 31.969071 29.511719 31.925781 L 32.59375 35.007812 A 14 14 0 0 0 33.154297 34.568359 L 29.511719 30.925781 z M 17 32.414062 L 14.839844 34.574219 A 14 14 0 0 0 15.400391 35.013672 L 17 33.414062 L 17 32.414062 z"/>
</svg>
